src/assets/search.svg

<svg fill="none" height="18" viewBox="0 0 19 18" width="19" xmlns="http://www.w3.org/2000/svg" xmlns:xlink="http://www.w3.org/1999/xlink"><clipPath id="a"><path d="m.470215 0h18v18h-18z"/></clipPath><g clip-path="url(#a)"><path d="m16.9702 16.5-3.75-3.75m1.875-4.6875c0 .8618-.1697 1.71516-.4995 2.5114-.3298.7962-.8132 1.5196-1.4226 2.129s-1.3328 1.0928-2.129 1.4226-1.64959.4995-2.51139.4995c-.86179 0-1.71516-.1697-2.51136-.4995-.79619-.3298-1.51964-.8132-2.12902-1.4226-.60939-.6094-1.09278-1.3328-1.42257-2.129-.3298-.79624-.49955-1.6496-.49955-2.5114 0-1.74048.69141-3.40968 1.92212-4.64039 1.2307-1.23071 2.8999-1.92211 4.64038-1.92211 1.74049 0 3.40969.6914 4.64039 1.92211s1.9221 2.89991 1.9221 4.64039z" stroke="#fff" stroke-linecap="round" stroke-linejoin="round" stroke-width="2"/></g></svg>

<svg width="19" height="18" viewBox="0 0 19 18" fill="none" xmlns="http://www.w3.org/2000/svg">
<g clip-path="url(#clip0_2290_2179)">
<path d="M16.9702 16.5L13.2202 12.75M15.0952 8.0625C15.0952 8.9243 14.9255 9.77766 14.5957 10.5739C14.2659 11.3701 13.7825 12.0935 13.1731 12.7029C12.5637 13.3123 11.8403 13.7957 11.0441 14.1255C10.2479 14.4553 9.39451 14.625 8.53271 14.625C7.67092 14.625 6.81755 14.4553 6.02135 14.1255C5.22516 13.7957 4.50171 13.3123 3.89233 12.7029C3.28294 12.0935 2.79955 11.3701 2.46976 10.5739C2.13996 9.77766 1.97021 8.9243 1.97021 8.0625C1.97021 6.32202 2.66162 4.65282 3.89233 3.42211C5.12303 2.1914 6.79223 1.5 8.53271 1.5C10.2732 1.5 11.9424 2.1914 13.1731 3.42211C14.4038 4.65282 15.0952 6.32202 15.0952 8.0625Z" stroke="white" stroke-width="2" stroke-linecap="round" stroke-linejoin="round"/>
</g>
<defs>
<clipPath id="clip0_2290_2179">
<rect width="18" height="18" fill="white" transform="translate(0.470215)"/>
</clipPath>
</defs>
</svg>
